X: 08101
T: SARAH SMITH'S JIG
C: Bob McQuillen 27 Jan 91
B: Bob's Note Book 8 #101
%R: jig
Z: 2021 John Chambers <jc:trillian.mit.edu>
M: 6/8
L: 1/8
K: G
E \
| DGB AGe | dBG A2G | ged Beg | dBG A2E |\
| DGB AGe | dBd ega | bge dBA | BGG G2 :|
|: A \
| BdB ABd | BAG E2G | DED DB,D | EGB AGA |\
| Bcd cde | def gdB | geg dcB | AGF G2 :|
%%begintext align
%% Jonathan Smith
%% and his wife, Laurie, live over in Nelson, NH,
%% the "Contra Dance Capital of the World." (Any
%% argument?!), and they have a really cute daughter
%% who I thought needed a tune all her own to dance
%% to. So Sarah, here it is, and I hope you like it.
%%endtext

%%sep 1 1 500

%%sep 1 1 500

